X:21
T:Kendal Green Hornpipe,aka. JBu.21
O:England,South Yorkshire
S:Joshua Burnett’s MS,c1835,S.Yorkshire
M:C|
L:1/8
Q:1/2=90
C:unnamed in MS, named by Paul davenport
R:.hornpipe
Z:vmp.R.Greig.2010
K:D
FG|A^GAB Adfd|Bege dcBA|A^GAB AFDF|EDEF E2FG|
A^GAB Adfd|Bege dcBA|Adfd Bgec|d2d2d2:|
|:d2|edef ecAG|Fgfg ecA^G|A^GAB AFDF|EDEF E2FG|
A^GAB Adfd|Bege dcBA|Adfd Bgec|d2d2d2:|

